client/assets/images/header/social_icons/Twitter.svg

<svg width="20" height="20" viewBox="0 0 20 20" fill="none" xmlns="http://www.w3.org/2000/svg">
<g id="icons8_Twitter 1">
<path id="Vector" d="M18.3332 3.33252C17.6832 3.71835 16.379 4.24419 15.6123 4.39585C15.5898 4.40169 15.5715 4.40919 15.5498 4.41502C14.8723 3.74669 13.944 3.33252 12.9165 3.33252C10.8457 3.33252 9.1665 5.01169 9.1665 7.08252C9.1665 7.19169 9.15734 7.39252 9.1665 7.49919C6.37234 7.49919 4.24567 6.03585 2.72067 4.16585C2.55484 4.58252 2.48234 5.24085 2.48234 5.85919C2.48234 7.02669 3.39484 8.17335 4.81567 8.88419C4.554 8.95169 4.26567 9.00002 3.96567 9.00002C3.4815 9.00002 2.969 8.87252 2.49984 8.48585C2.49984 8.50002 2.49984 8.51335 2.49984 8.52835C2.49984 10.16 4.2315 11.2709 5.7715 11.58C5.459 11.7642 4.829 11.7825 4.5215 11.7825C4.30484 11.7825 3.53817 11.6834 3.33317 11.645C3.7615 12.9825 5.3065 13.7342 6.779 13.7609C5.62734 14.6642 4.82817 14.9992 2.46984 14.9992H1.6665C3.1565 15.9542 5.054 16.6667 6.95567 16.6667C13.1473 16.6667 16.6665 11.9475 16.6665 7.49919C16.6665 7.42752 16.6648 7.27752 16.6623 7.12669C16.6623 7.11169 16.6665 7.09752 16.6665 7.08252C16.6665 7.06002 16.6598 7.03835 16.6598 7.01585C16.6573 6.90252 16.6548 6.79669 16.6523 6.74169C17.3107 6.26669 17.8815 5.67419 18.3332 4.99919C17.729 5.26752 17.0807 5.44752 16.3998 5.52919C17.0948 5.11252 18.0823 4.11919 18.3332 3.33252Z" fill="white"/>
</g>
</svg>

<svg xmlns="http://www.w3.org/2000/svg" width="20" height="20" fill="none"><path d="M18.333 3.333c-.65.386-1.954.912-2.721 1.063l-.062.019c-.678-.668-1.606-1.082-2.633-1.082a3.75 3.75 0 0 0-3.75 3.75v.417c-2.794 0-4.921-1.463-6.446-3.333-.166.417-.238 1.075-.238 1.693 0 1.168.912 2.314 2.333 3.025-.262.067-.55.116-.85.116-.484 0-.997-.127-1.466-.514v.043c0 1.632 1.732 2.743 3.272 3.052-.312.184-.942.203-1.25.203a12.09 12.09 0 0 1-1.188-.138c.428 1.338 1.973 2.089 3.446 2.116-1.152.903-1.951 1.238-4.309 1.238h-.803c1.49.955 3.388 1.667 5.289 1.667 6.192 0 9.711-4.719 9.711-9.168l-.004-.372c0-.015.004-.029.004-.044 0-.022-.007-.044-.007-.067l-.008-.274c.658-.475 1.229-1.067 1.681-1.743-.604.268-1.253.448-1.933.53.695-.417 1.683-1.41 1.933-2.197z" fill="#fff"/></svg>
